icon/pk/pear.svg

<svg viewBox="0 0 48 48" fill="none" xmlns="http://www.w3.org/2000/svg" height="1em" width="1em">
  <path d="M16.6391 12.7461C17.9484 9.85633 20.8275 8 24 8C27.1725 8 30.0516 9.85633 31.3609 12.7461L34.4211 19.5L38.1067 25.8219C40.3938 29.7449 39.7121 34.7218 36.4545 37.8853L35.2649 39.0405C32.352 41.8693 27.7836 42.0721 24.6314 39.5127C24.2635 39.2139 23.7365 39.2139 23.3686 39.5127C20.2164 42.0721 15.648 41.8693 12.7351 39.0405L11.5455 37.8853C8.28785 34.7218 7.60621 29.7449 9.8933 25.8219L13.5789 19.5L16.6391 12.7461Z" fill="#2F88FF" stroke="black" stroke-width="4"/>
  <path d="M21.5 4C22.1667 4.5 23.6 5.9 24 7.5C24.4 9.1 24.1667 10.8333 24 11.5" stroke="black" stroke-width="4" stroke-linecap="round"/>
  <circle cx="16" cy="28" r="2" fill="white"/>
  <circle cx="18" cy="34" r="2" fill="white"/>
  <circle cx="23" cy="30" r="2" fill="white"/>
</svg>

<svg width="48" height="48" fill="none" xmlns="http://www.w3.org/2000/svg"><path d="M16.64 12.746a8.081 8.081 0 0 1 14.72 0l3.061 6.754 3.686 6.322a9.88 9.88 0 0 1-1.652 12.063l-1.19 1.156a8.013 8.013 0 0 1-10.634.472 1.002 1.002 0 0 0-1.262 0 8.013 8.013 0 0 1-10.634-.472l-1.19-1.156a9.88 9.88 0 0 1-1.652-12.063L13.58 19.5l3.06-6.754Z" fill="#2F88FF" stroke="#000" stroke-width="4"/><path d="M21.5 4c.667.5 2.1 1.9 2.5 3.5.4 1.6.167 3.333 0 4" stroke="#000" stroke-width="4" stroke-linecap="round"/><circle cx="16" cy="28" r="2" fill="#fff"/><circle cx="18" cy="34" r="2" fill="#fff"/><circle cx="23" cy="30" r="2" fill="#fff"/></svg>
